assets/icons/sidebar/hide-filled.svg

<?xml version="1.0" encoding="UTF-8" standalone="no"?>
<svg
   viewBox="0 0 24 24"
   width="24"
   height="24"
   version="1.1"
   id="svg8"
   sodipodi:docname="hide-filled.svg"
   inkscape:version="1.2 (1:1.2.1+202207142221+cd75a1ee6d)"
   xmlns:inkscape="http://www.inkscape.org/namespaces/inkscape"
   xmlns:sodipodi="http://sodipodi.sourceforge.net/DTD/sodipodi-0.dtd"
   xmlns="http://www.w3.org/2000/svg"
   xmlns:svg="http://www.w3.org/2000/svg"
   xmlns:rdf="http://www.w3.org/1999/02/22-rdf-syntax-ns#"
   xmlns:cc="http://creativecommons.org/ns#"
   xmlns:dc="http://purl.org/dc/elements/1.1/">
  <path
     id="path1472"
     style="color:#000000;fill:#808080;fill-opacity:1;stroke-linecap:square;-inkscape-stroke:none"
     d="M 6 3 L 6 21 L 13.5 21 C 14.499998 21 15.293772 21.036709 15.972656 20.697266 C 16.312099 20.527544 16.602661 20.234832 16.769531 19.859375 C 16.936401 19.483918 17 19.041665 17 18.5 L 17 5.5 C 17 4.9583344 16.9364 4.5160816 16.769531 4.140625 C 16.602661 3.7651684 16.312099 3.4724554 15.972656 3.3027344 C 15.293772 2.9632923 14.499998 3 13.5 3 L 6 3 z M 12.5 7.7929688 L 13.207031 8.5 L 12.853516 8.8535156 L 9.7070312 12 L 12.853516 15.146484 L 13.207031 15.5 L 12.5 16.207031 L 12.146484 15.853516 L 8.2929688 12 L 12.146484 8.1464844 L 12.5 7.7929688 z " />
  <metadata
     id="metadata14">
    <rdf:RDF>
      <cc:Work
         rdf:about="">
        <dc:format>image/svg+xml</dc:format>
        <dc:type
           rdf:resource="http://purl.org/dc/dcmitype/StillImage" />
      </cc:Work>
    </rdf:RDF>
  </metadata>
  <defs
     id="defs12" />
  <sodipodi:namedview
     pagecolor="#ffffff"
     bordercolor="#666666"
     borderopacity="1"
     objecttolerance="10"
     gridtolerance="10"
     guidetolerance="10"
     inkscape:pageopacity="0"
     inkscape:pageshadow="2"
     inkscape:window-width="1920"
     inkscape:window-height="1043"
     id="namedview10"
     showgrid="true"
     inkscape:zoom="27.5"
     inkscape:cx="21.6"
     inkscape:cy="12.218182"
     inkscape:window-x="0"
     inkscape:window-y="0"
     inkscape:window-maximized="1"
     inkscape:current-layer="svg8"
     inkscape:pagecheckerboard="0"
     inkscape:snap-page="true"
     inkscape:showpageshadow="2"
     inkscape:deskcolor="#d1d1d1">
    <inkscape:grid
       type="xygrid"
       id="grid1414" />
    <inkscape:grid
       type="xygrid"
       id="grid1428"
       dotted="true"
       spacingx="0.5"
       spacingy="0.5"
       empspacing="10" />
  </sodipodi:namedview>
</svg>

<svg width="24" height="24" xmlns="http://www.w3.org/2000/svg"><path style="color:#000;fill:gray;fill-opacity:1;stroke-linecap:square;-inkscape-stroke:none" d="M6 3v18h7.5c1 0 1.794.037 2.473-.303.34-.17.63-.462.797-.838.166-.375.23-.817.23-1.359v-13c0-.542-.064-.984-.23-1.36a1.72 1.72 0 0 0-.797-.837C15.293 2.963 14.5 3 13.5 3H6zm6.5 4.793.707.707-.353.354L9.707 12l3.147 3.146.353.354-.707.707-.354-.353L8.293 12l3.853-3.854.354-.353z"/></svg>
